assets/shield-lock-outline.svg

<?xml version="1.0" encoding="UTF-8" standalone="no"?>
<svg
   viewBox="0 0 25 25"
   version="1.1"
   id="svg36"
   sodipodi:docname="shield-lock-outline.svg"
   width="25"
   height="25"
   inkscape:version="1.2.2 (1:1.2.2+202305151914+b0a8486541)"
   xmlns:inkscape="http://www.inkscape.org/namespaces/inkscape"
   xmlns:sodipodi="http://sodipodi.sourceforge.net/DTD/sodipodi-0.dtd"
   xmlns="http://www.w3.org/2000/svg"
   xmlns:svg="http://www.w3.org/2000/svg">
  <defs
     id="defs40" />
  <sodipodi:namedview
     id="namedview38"
     pagecolor="#ffffff"
     bordercolor="#000000"
     borderopacity="0.25"
     inkscape:showpageshadow="2"
     inkscape:pageopacity="0.0"
     inkscape:pagecheckerboard="0"
     inkscape:deskcolor="#d1d1d1"
     showgrid="false"
     inkscape:zoom="20.541667"
     inkscape:cx="11.975659"
     inkscape:cy="12.048682"
     inkscape:window-width="1366"
     inkscape:window-height="673"
     inkscape:window-x="0"
     inkscape:window-y="0"
     inkscape:window-maximized="1"
     inkscape:current-layer="svg36" />
  <path
     d="M 21,11 C 21,16.55 17.16,21.74 12,23 6.84,21.74 3,16.55 3,11 V 5 l 9,-4 9,4 v 6 m -9,10 c 3.75,-1 7,-5.46 7,-9.78 V 6.3 L 12,3.18 5,6.3 v 4.92 C 5,15.54 8.25,20 12,21 M 14.8,11 V 9.5 C 14.8,8.1 13.4,7 12,7 10.6,7 9.2,8.1 9.2,9.5 V 11 C 8.6,11 8,11.6 8,12.2 v 3.5 C 8,16.4 8.6,17 9.2,17 h 5.5 C 15.4,17 16,16.4 16,15.8 V 12.3 C 16,11.6 15.4,11 14.8,11 m -1.3,0 h -3 V 9.5 c 0,-0.8 0.7,-1.3 1.5,-1.3 0.8,0 1.5,0.5 1.5,1.3 z"
     id="path34" />
</svg>

<svg xmlns="http://www.w3.org/2000/svg" viewBox="0 0 24 24"><path d="M21,11C21,16.55 17.16,21.74 12,23C6.84,21.74 3,16.55 3,11V5L12,1L21,5V11M12,21C15.75,20 19,15.54 19,11.22V6.3L12,3.18L5,6.3V11.22C5,15.54 8.25,20 12,21M14.8,11V9.5C14.8,8.1 13.4,7 12,7C10.6,7 9.2,8.1 9.2,9.5V11C8.6,11 8,11.6 8,12.2V15.7C8,16.4 8.6,17 9.2,17H14.7C15.4,17 16,16.4 16,15.8V12.3C16,11.6 15.4,11 14.8,11M13.5,11H10.5V9.5C10.5,8.7 11.2,8.2 12,8.2C12.8,8.2 13.5,8.7 13.5,9.5V11Z" /></svg>
